!!!SOCIAL_FUNCTION:	miscellaneous songs
!!!PDT:	1956
!!!OTL: No_239_Drinking_Song_(c).krn
!!!LANG: Non-Tone
!!!LING_GROUP: Muskogean
!!!REG: Florida
**kern
*staff1
=1-
*clefG2
*k[f#]
*M3/4
2r
8r
8g/
=2
(2g/
8e/L)
8g/J
=3||
*M2/4
4e/
8d/
8r
=4
8e/L
8d/J
8e/L
8d/J
=5||
*M3/8
4e/
8e/
=6||
*M2/4
4.B/
8e/
=7
4e/
8e/
8r
=8||
*M3/4
4e/
8fn/L
8e/J
8f/L
8e/J
=9||
*M2/4
4.g/
8a/
=10
8g/L
8f#/J
8e/
8r
=11
8.g/L
16e/Jk
8fn/L
8e/J
=12
4r
8e/L
8d/J
=13
4.B/
8e/
=14
4e/
8e/
8r
*-
